!!!OTL: "Die Nixenbraut" ES FREIT DER WASSERNIXE
!!!ARE: Europa, Mitteleuropa, Deutschland, Nord - Deutschland
!!!SCT: Z1092
!!!YEM: Copyright 1995, estate of Helmut Schaffrath.
**kern
*ICvox
*Ivox
*M2/4
*k[b-e-]
*g:
{8d
=1
8g
16g
16f#
8g
8a
=2
8b-
8fn
8r
8a
=3
8g
4d}
{8d
=4
8g
16g
16f#
8g
8a
=5
8b-
4fn
8a
=6
8g
4d}
{8d
=7
8b-
16b-
16a
8b-
8a
=8
16b-
16cc
4dd}
{8d
=9
8g
16g
16f#
8g
16a
16a
=10
16b-
16cc
4dd}
{16cc
16b-
=11
8a
8g
4a
=12
4g
8r}
==
!!!AGN: Romanze, Ballade, Tod
!!!ONB: ESAC (Essen Associative Code) Database: ZUCCAL
!!!AMT: simple duple
!!!AIN: vox
!!!EED: Helmut Schaffrath
!!!EEV: 1.0
*-
